Obsidian-SemiLight/actions/16s/text_horz_kern.svg

<svg xmlns="http://www.w3.org/2000/svg" viewBox="0 0 16 16">
  <defs id="defs3051">
    <style type="text/css" id="current-color-scheme">
      .ColorScheme-Text {
        color:#4d4d4d;
      }
      </style>
  </defs>
  <path 
     style="fill:currentColor;fill-opacity:1;stroke:none" 
     d="M 4.0039062 8 A 3 3 0 0 0 1.0039062 11 A 3 3 0 0 0 4.0039062 14 A 3 3 0 0 0 6.0039062 13.232422 L 6.0039062 14.001953 L 7.0039062 14.001953 L 7.0039062 8.0019531 L 6.0039062 8.0019531 L 6.0039062 8.7714844 A 3 3 0 0 0 4.0039062 8.0019531 L 4.0039062 8 z M 9 8 L 9 14 L 10 14 L 10 13.230469 A 3 3 0 0 0 12 14 A 3 3 0 0 0 15 11 A 3 3 0 0 0 12 8 A 3 3 0 0 0 10 8.7675781 L 10 8 L 9 8 z M 12 9 A 2 2 0 0 1 14 11 A 2 2 0 0 1 12 13 A 2 2 0 0 1 10 11 A 2 2 0 0 1 12 9 z M 4.0039062 9.0019531 A 2 2 0 0 1 6.0039062 11.001953 A 2 2 0 0 1 4.0039062 13.001953 A 2 2 0 0 1 2.0039062 11.001953 A 2 2 0 0 1 4.0039062 9.0019531 z "
     class="ColorScheme-Text"/>
  <path
     style="fill:#1d99f3"
     d="M 7 2 L 4 4.5 L 7 7 L 7 2 z M 9 2 L 9 7 L 12 4.5 L 9 2 z " />
</svg>

<svg viewBox="0 0 16 16" xmlns="http://www.w3.org/2000/svg"><path d="m4.0039062 8a3 3 0 0 0 -3 3 3 3 0 0 0 3 3 3 3 0 0 0 2-.767578v.769531h1v-5.9999999h-1v.7695313a3 3 0 0 0 -2-.7695313zm4.9960938 0v6h1v-.769531a3 3 0 0 0 2 .769531 3 3 0 0 0 3-3 3 3 0 0 0 -3-3 3 3 0 0 0 -2 .7675781v-.7675781zm3 1a2 2 0 0 1 2 2 2 2 0 0 1 -2 2 2 2 0 0 1 -2-2 2 2 0 0 1 2-2zm-7.9960938.0019531a2 2 0 0 1 2 1.9999999 2 2 0 0 1 -2 2 2 2 0 0 1 -2-2 2 2 0 0 1 2-1.9999999z" fill="#4d4d4d"/><path d="m7 2-3 2.5 3 2.5zm2 0v5l3-2.5z" fill="#1d99f3"/></svg>
